!!!COM: Haydn, Franz Joseph
!!!OTL: String Quartet in F Major
!!!OPS: Opus 77
!!!ONM: No. 2
!!!OMD: Menuetto: Presto ma non troppo
!!!OMV: 2
!!!SCT: H III:82
!!!SCA: Thematisch-bibliographisches Werkevererzeichnis (A. van Hoboken)
!!!YOR: Trautwein Edition
!!!ENC: Frances Bennion
!!!CDT: 1732/3/31/-1809/5/31/
!!!CNT: Oesterreich
!!!YEC: Copyright (c) 1994, 2000 Center for Computer Assisted Research in the Humanities
!!!YEM: Rights to all derivative editions reserved.
!!!YEM: Refer to licensing agreement for further details.
!!!YEN: United States of America
**kern	**kern	**kern	**kern
*k[b-]	*k[b-]	*k[b-]	*k[b-]
*F:	*F:	*F:	*F:
*clefF4	*clefC3	*clefF	*clefF
*M3/4	*M3/4	*M3/4	*M3/4
2r	2r	2r	4r
.	.	.	4r
4r	4r	4r	8cc
.	.	.	8a
=1	=1	=1	=1
4F	4c	4A	4f
4F	4c	8a	8ff
.	.	8b-	8ee
4F	4c	4a	4ff
=2	=2	=2	=2
4E	4c	4b-	4gg
4r	4r	4r	4cc
4e	4c	4b-	4gg
=3	=3	=3	=3
4e	4g	4b-	4cc
4e	4g	4b-	4gg
4e	4g	4b-	4cc
=4	=4	=4	=4
4f	4f	4a	4aa
4r	2r	2r	4ff
4C	.	.	4r
=5	=5	=5	=5
4FF	2.r	2.r	2.r
4C	.	.	.
4FF	.	.	.
=6	=6	=6	=6
4C	4r	4r	4r
4FF	4r	8a	8aa
.	.	8f	8ff
4C	4c	4c	4cc
=7	=7	=7	=7
4FF	4F	8a	8aa
.	.	8f	8ff
4C	4c	4c	4cc
4FF	4F	8a	8aa
.	.	8f	8ff
=8	=8	=8	=8
4C	4c	4c	4cc
4FF	4F	8a	8aa
.	.	8f	8ff
4D-	[4c#	4A	4a
=9	=9	=9	=9
4FF	4c#]	8a	8aa
.	.	8f	8ff
4D	4d	4A	4a
4FF	[4d	8a	8aa
.	.	8f	8ff
=10	=10	=10	=10
4F	4d]	8d	8dd
.	.	8f	8ff
4FF	4f	4a	4aa
4F	4a	8f	8ff
.	.	8d	8dd
=11	=11	=11	=11
4GG	2g	4e	8ee
.	.	.	8gg
4G	.	8g	8ee
.	.	8e	8cc
4GG	4f	8d	8b
.	.	8B	8dd
=12	=12	=12	=12
4C	4e	4c	4cc
4CC	2r	4r	4r
4r	.	4g	8g
.	.	.	8cc
=13	=13	=13	=13
2.r	[2.cc	4c	[2.ee
.	.	4g	.
.	.	4c	.
=14	=14	=14	=14
2.r	2cc]	4g	2.ee]
.	.	4c	.
.	4G	4g	.
=15	=15	=15	=15
2.r	4C	[2.cc	[2.ee-
.	4G	.	.
.	4C	.	.
=16	=16	=16	=16
4r	4G	2cc]	2ee-]
4r	4C	.	.
4C	4c	4g	8e-
.	.	.	8ee-
=17	=17	=17	=17
4FF	4c	[2.a-	2.ee-
4C	4F	.	.
4FF	4c	.	.
=18	=18	=18	=18
4C	2F	2a-]	2dd
4FF	.	.	.
4FF#	4F#	4e-	[4cc
=19	=19	=19	=19
4GG	2G	2.d	4cc]
4G	.	.	4dd
4GG	4f	.	4b
=20	=20	=20	=20
4CC	4G 4e	4e	4cc
4C	4G 4e	4e	4r
4C	4G 4e	4e	4gg
=21	=21	=21	=21
4C	4d 4G	4f	4b
4C	4G 4d	4f	4gg
4C	4G 4d	4f	4b
=22	=22	=22	=22
4C	4e 4G	4e	4ee
4C	4G 4e	4e	4g
4C	4g 4G	4ee	4ccc
=23	=23	=23	=23
4c	4dd	4ff	4bb
4c	4dd	4ff	4fff
4c	4dd	4ff	4bb
=24	=24	=24	=24
4c	4cc	4ee	4ccc
4r	4r	4r	4r
8E	8g	4r	4r
8G	8e	.	.
=25	=25	=25	=25
4B-	4c	2.r	2.r
8E	8g	.	.
8G	8e	.	.
4B-	4c	.	.
=26	=26	=26	=26
4F	4a	4r	4r
4A	4f	4r	4r
4r	4r	8a	8ccc
.	.	8cc	8aa
=27	=27	=27	=27
2.r	2.r	4ee-	4ff
.	.	8a	8ccc
.	.	8cc	8aa
.	.	4ee-	4ff
=28	=28	=28	=28
4r	4r	4b-	4ddd
4r	4r	4dd	4bb-
8d	8dd	4r	4r
8A	8a	.	.
=29	=29	=29	=29
4F#	4f#	4r	4r
2r	2r	8dd	8ddd
.	.	8a	8aa
.	.	4f#	4ff#
=30	=30	=30	=30
8d	8dd	4r	4r
8B-	8b-	.	.
4G	4g	4r	4r
4r	4r	8dd	8ddd
.	.	8b-	8bb-
=31	=31	=31	=31
4r	4r	4g	4gg
8B-	8b-	2r	2r
8G	8g	.	.
4E	4e	.	.
=32	=32	=32	=32
4r	4r	8b-	8bb-
.	.	8g	8gg
4r	4r	4e	4ee
8c	8cc	4r	4r
8A	8a	.	.
=33	=33	=33	=33
4F	4f	4r	4r
2r	2r	8cc	8ccc
.	.	8a	8aa
.	.	4f	8ff
.	.	.	8cc
=34	=34	=34	=34
2E	[2.c	2g	8b-
.	.	.	8cc
.	.	.	8b-
.	.	.	8g
4F	.	8f	8a
.	.	8a	8f
=35	=35	=35	=35
4C	4c]	4g	8e
.	.	.	8c
2r	2r	2r	8B
.	.	.	8c
.	.	.	8e
.	.	.	8g
=36	=36	=36	=36
2.r	4r	2.r	2b-
.	4r	.	.
.	4g	.	16b-
.	.	.	16a
.	.	.	16b-
.	.	.	16cc
=37	=37	=37	=37
2.r	4c	[2.b-	2.dd-
.	4g	.	.
.	4c	.	.
=38	=38	=38	=38
4r	4g	4b-]	4cc
4r	4c	2r	4r
4GG	4r	.	4b-
=39	=39	=39	=39
4CC	[2.g	[2.b-	2.ff
4GG	.	.	.
4CC	.	.	.
=40	=40	=40	=40
4GG	2.g]	2.b-]	2.ee
4CC	.	.	.
4r	.	.	.
=41	=41	=41	=41
4GG	2.r	2.r	2.r
4CC	.	.	.
4r	.	.	.
=42	=42	=42	=42
4GG	2.r	2.r	2.r
4CC	.	.	.
4r	.	.	.
=43	=43	=43	=43
2.GG	2.D-	[2.B-	2.f
=44	=44	=44	=44
2CC	2G	2B-]	2e
4r	4r	4r	8cc
.	.	.	8a
=45	=45	=45	=45
4F	4F	4A	4f
4F	4c	8a	8ff
.	.	8b-	8ee
4F	4c	4a	4ff
=46	=46	=46	=46
4E	4c	4b-	4gg
4r	4r	4r	4cc
4e	4c	4b-	4gg
=47	=47	=47	=47
4e	4g	4b-	4cc
4e	4g	4b-	4gg
4e	4g	4b-	4cc
=48	=48	=48	=48
4f	4f	4a	4aa
4r	2r	2r	4ff
4C	.	.	4r
=49	=49	=49	=49
4FF	2.r	2.r	2.r
4C	.	.	.
4FF	.	.	.
=50	=50	=50	=50
4C	4r	2.r	4r
4FF	4r	.	8aa
.	.	.	8ff
4C	4c	.	4cc
=51	=51	=51	=51
4FF	4F	4r	8aa
.	.	.	8ff
4C	4A	4r	4cc
4FF	4F	[4a	8aa
.	.	.	8ff
=52	=52	=52	=52
4EE-	2.E-	4a]	4cc
4C	.	4ff	8aa
.	.	.	8ff
4EE-	.	4a	4cc
=53	=53	=53	=53
4DD	4D	4b-	8bb-
.	.	.	8ff
4D	4r	4ff	4b-
4DD	8f	[4f	8bb-
.	8g	.	8ff
=54	=54	=54	=54
4DD-	2a-	4f]	8bb
.	.	.	8ff
4D-	.	4ff	8b
.	.	.	8ff
4DD-	8A-	8f	8bb
.	8G	8g	8ff
=55	=55	=55	=55
4CC	4F	4a	8ccc
.	.	.	8aa
4C	4c	8a	8ff
.	.	8f	8aa
4CC	4B-	8e	8gg
.	.	8g	8ee
=56	=56	=56	=56
4FF	4A	4f	4ff
4F	2r	4r	4r
4r	.	4cc	8cc
.	.	.	8ff
=57	=57	=57	=57
2.r	[2.ff	4f	[2.aa
.	.	4cc	.
.	.	4f	.
=58	=58	=58	=58
2.r	2ff]	4cc	2.aa]
.	.	4f	.
.	4c	4r	.
=59	=59	=59	=59
2.r	4F	[2.ff	[2.aa-
.	4c	.	.
.	4F	.	.
=60	=60	=60	=60
4r	4c	2ff]	2aa-]
4r	4F	.	.
4F	4r	4cc	8cc
.	.	.	8aa-
=61	=61	=61	=61
4BB-	2.r	[2.dd-	2.aa-
4F	.	.	.
4BB-	.	.	.
=62	=62	=62	=62
4B-	4E	2.dd-]	[2.gg
4E-	4e-	.	.
4e-	[4e-	.	.
=63	=63	=63	=63
4A-	4e-]	2cc	4gg]
4d-	4d-	.	2ff
4G	4d-	[4b-	.
=64	=64	=64	=64
4c	4c	4b-]	4ee
4F	4F	4a-	4ff
4D-	8A-	4f	4b
.	8F	.	.
=65	=65	=65	=65
4C	4G	4e	4cc
4GG	4G	4e	4ee
4EE	4G	4e	4gg
=66	=66	=66	=66
4CC	4G	4e	4ccc
2r	2r	2r	4r
.	.	.	4cc
=67	=67	=67	=67
4F	4F	4A	4f
4F	4c	8a	8ff
.	.	8b-	8ee
4F	4c	4a	4ff
=68	=68	=68	=68
4E	4c	4b-	4gg
4r	4r	4r	4cc
4e	4c	4b-	4gg
=69	=69	=69	=69
4e	4g	4b-	4cc
4e	4g	4b-	4gg
4e	4g	4b-	4cc
=70	=70	=70	=70
4f	4f	4a	4aa
2r	2r	2r	4ff
.	.	.	4bb-
=71	=71	=71	=71
4d	4f	4b-	4ff
4r	4r	4r	4ccc
4A	[4f	4cc	4ff
=72	=72	=72	=72
2.B-	4f]	4f	2ddd
.	4a	4f#	.
.	4b-	4g	16ccc
.	.	.	16bb-
.	.	.	16aa
.	.	.	16gg
=73	=73	=73	=73
2c	4cc	4a	4ff
.	4e	4b-	4gg
4C	4b-	4g	4ee
=74	=74	=74	=74
4FF	4a	4a	4ff
4F	4c	4A	4r
4F	4c	4A	4cc
=75	=75	=75	=75
4F	4G	4B-	4e
4F	4G	4B-	4cc
4F	4G	4B-	4e
=76	=76	=76	=76
4FF	4A	4A	4a
4F	4A	4A	4c
4F	4f	4a	4ccc
=77	=77	=77	=77
4F	4g	4b-	4ee
4F	4e	4b-	4ccc
4F	4g	4b-	4ee
=78	=78	=78	=78
4FF	4f	4a	4aa
2r	4r	4r	4r
.	4r	4r	4r
=79	=79	=79	=79
*D-:	*D-:	*D-:	*D-:
4r	4r	4r	4r
4r	4r	4r	4r
4DD-	4A-	4d-	4f
=80	=80	=80	=80
[2.DD-	2A-	2d-	2f
.	4G-	4e-	4g-
=81	=81	=81	=81
2.DD-_	2F	2f	2a-
.	4F	4a-	4dd-
=82	=82	=82	=82
2.DD-_	4G-	2a-	2cc
.	4B-	.	.
.	4c	4g-	4b-
=83	=83	=83	=83
2.DD-_	4d-	4f	2a-
.	4f	4d-	.
.	4F	4c-	4a-
=84	=84	=84	=84
2.DD-_	4G-	4B-	2a-
.	4B-	4d-	.
.	4c	4e-	4g-
=85	=85	=85	=85
2.DD-]	4d-	4A-	2f
.	2r	4d-	.
.	.	4c	4a-
=86	=86	=86	=86
2.EE-	2.d-	4B-	8g
.	.	.	8a-
.	.	4G	8b-
.	.	.	8cc
.	.	4G	8dd-
.	.	.	8b-
=87	=87	=87	=87
4AA-	4c	4A-	4a-
4AA-	4e-	4c	4a-
4AA-	4e-	4c	4a-
=88	=88	=88	=88
2.EE-	2.d-	4B-	8g
.	.	.	8a-
.	.	4G	8b-
.	.	.	8cc
.	.	4G	8dd-
.	.	.	8b-
=89	=89	=89	=89
4AA-	4c	4A-	4a-
4C	2r	4r	4r
4AA-	.	4A-	4e-
=90	=90	=90	=90
2.EE-	2.D-	8G	4f-
.	.	8A-	.
.	.	8B-	4e-
.	.	8c	.
.	.	8d-	4e-
.	.	8B-	.
=91	=91	=91	=91
4AA-	4C	4A-	4e-
4AA-	4E-	4c	4r
4AA-	4C	4A-	4e-
=92	=92	=92	=92
2.EE-	2.D-	8G	4f-
.	.	8A-	.
.	.	8B-	4e-
.	.	8c	.
.	.	8d-	4e-
.	.	8B-	.
=93	=93	=93	=93
4AA-	4C	4A-	4e-
4r	4r	4r	4r
4G-	4A-	4c	4e-
=94	=94	=94	=94
2G-	[2.A-	2c	2e-
4F	.	4d-	4f
=95	=95	=95	=95
2C	2.A-_	2e-	4a-
.	.	.	4g-
4D-	.	4d-	4f
=96	=96	=96	=96
2G-	2.A-]	2c	2e-
4F	.	4d-	4f
=97	=97	=97	=97
4C	4A-	4e-	4a-
2r	2r	2r	4g-
.	.	.	4r
=98	=98	=98	=98
4D-	4d-	4A-	4g-
2r	2r	2r	4f
.	.	.	4r
=99	=99	=99	=99
4G	4B-	4d-	4f
2r	2r	2r	4e-
.	.	.	4b-
=100	=100	=100	=100
4A-	4A-	4c	4f
4r	4r	4r	4e-
4DD-	4A-	4d-	4f
=101	=101	=101	=101
[2.DD-	2A-	2d-	2f
.	4G-	4e-	4g-
=102	=102	=102	=102
2.DD-_	2F	2f	2a-
.	4F	4a-	4dd-
=103	=103	=103	=103
2.DD-_	4G-	2a-	2cc
.	4B-	.	.
.	4c	4g-	4b-
=104	=104	=104	=104
2.DD-_	4d-	4f	2a-
.	4f	4d-	.
.	4F	4c-	4a-
=105	=105	=105	=105
2.DD-_	4G-	4B-	2a-
.	4B-	4d-	.
.	4c	4e-	4g-
=106	=106	=106	=106
2DD-]	[2.d-	2.A-	2f
4DD-	.	.	8a-
.	.	.	8f
=107	=107	=107	=107
4GG-	2.d-]	2.B-	8e-
.	.	.	8f
4GG-	.	.	8g-
.	.	.	8a-
4GG-	.	.	8b-
.	.	.	8g-
=108	=108	=108	=108
2.GG	2.B-	4d-	4e-
.	.	4d-	4e-
.	.	4d-	4e-
=109	=109	=109	=109
2.AA-	2A-	4d-	4f
.	.	4e-	4g-
.	4G-	4c	4e-
=110	=110	=110	=110
[2.DD-	2.F	2d-	2d-
.	.	4A-	4a-
=111	=111	=111	=111
2.DD-_	2.G-	2.B--	8c
.	.	.	8d-
.	.	.	8e-
.	.	.	8f
.	.	.	8g-
.	.	.	8e-
=112	=112	=112	=112
2.DD-_	2.F	2A-	4d-
.	.	.	4d-
.	.	4A-	4d-
=113	=113	=113	=113
2.DD-_	2.G-	2.B--	8c
.	.	.	8d-
.	.	.	8e-
.	.	.	8f
.	.	.	8g-
.	.	.	8e-
=114	=114	=114	=114
2DD-]	2F	4A-	4d-
.	.	2r	4r
4AA-	4A-	.	4f
=115	=115	=115	=115
8CC	4B--	2.e-	2.g-
8DD-	.	.	.
8EE-	4A-	.	.
8FF	.	.	.
8GG-	4A-	.	.
8CC	.	.	.
=116	=116	=116	=116
4DD-	2A-	4f	4f
4DD-	.	2r	4f
4AA-	4A-	.	4f
=117	=117	=117	=117
8CC	4B--	2.e-	2.g-
8DD-	.	.	.
8EE-	4A-	.	.
8FF	.	.	.
8GG-	4A-	.	.
8CC	.	.	.
=118	=118	=118	=118
4DD-	4A-	4f	4f
2r	4r	4r	4r
.	4r	4r	8a-
.	.	.	8f
=119	=119	=119	=119
4D-	4A-	4f	4d-
4D-	4A-	4f	8dd-
.	.	.	8cc
4D-	4A-	4f	4dd-
=120	=120	=120	=120
4C	4A-	4e-	4ee-
2r	2r	2r	4a-
.	.	.	4r
=121	=121	=121	=121
2.r	4e-	2.r	4r
.	4A-	.	4r
.	4r	.	8cc
.	.	.	8a
=122	=122	=122	=122
4AA	4c	4e-	4f
4AA	4F	4e-	8cc
.	.	.	8b-
4AA	4F	4e-	4cc
=123	=123	=123	=123
4BB-	4F	4d-	4dd-
2r	2r	2r	4b-
.	.	.	4r
=124	=124	=124	=124
2.r	2.r	4f	4r
.	.	4B-	4r
.	.	4r	8dd-
.	.	.	8b-
=125	=125	=125	=125
4BB-	4B-	4d-	8g
.	.	.	8b-
4BB-	4G	4d-	8dd-
.	.	.	8b-
4BB-	4B-	4d-	8g
.	.	.	8f
=126	=126	=126	=126
4C	4G	4c	4e
2r	2r	2r	4cc
.	.	.	4r
=127	=127	=127	=127
4GG	2.r	2.r	2.r
4CC	.	.	.
4r	.	.	.
==	==	==	==
*-	*-	*-	*-
!!!RWG1: This file contains only pitch and duration data.
!!!RWG2: Transposing instruments are not transposed.
!!!RWG3: Spines may have incompatible meters.
!!!RWG4: Durations of rests and tied notes may be interpreted.
!!!RWG: Key is interpreted using the Humdrum key tool.
!!!GTL: 2 Quartetti ("Lobkowitz")
!!!AFT: stage1
!!!END: 1997/04/15
!!!KEY: 14773966
!!!EMD: Converted from MuseData to Humdrum Dec 16, 2000, by Andreas Kornstaedt using muse2kern.
!!!EMD: Manual editing by Craig Sapp, Nov 2001
